IMB-X-Files/The-Ambassadors-Assets/6616e2ee545a54c30cdd1e0a_ts-logo.svg

<svg fill="none" height="53" viewBox="0 0 243 53" width="243" xmlns="http://www.w3.org/2000/svg"><g clip-rule="evenodd" fill="#fff" fill-rule="evenodd"><path d="m65.1198 28.656c-1.9449 3.4317-4.2772 5.3614-9.321 5.9182-5.5579.6197-10.1511-2.9846-11.9655-5.6751 2.3138.8124 4.7789 1.1123 7.222.8785 4.53-.4118 7.1152-2.1885 8.9692-5.0986.2806-.4353 1.0395-1.8001-.2886-2.259-1.2175-.4197-2.3362-.4314-3.2058.8354-1.4113 2.0668-3.0636 2.8591-6.5223 3.2356-4.6092.4902-10.1433-2.5375-10.7836-1.906-1.1464 1.1294 2.5733 13.5465 16.2821 13.3936 4.9371-.055 8.4039-1.7257 11.6493-5.8831.7905-1.0079.5454-2.2315-.3203-3.3807-.5336-.71-1.2925-.7609-1.6997-.0432"/><path d="m68.7242 21.2082c1.8381-4.7535.0632-7.746-.6167-7.6048-.5534.1216-1.5812 3.2474-3.0438 5.0672-4.9174-2.2355-8.0047-.2039-7.9335.8746.0593.8982 4.1071.251 7.9058 3.5298 4.036 3.471 4.1546 7.2321 5.3089 7.2165.9249 0 2.8895-3.6592-1.6207-9.0833z"/><path d="m81.2094 21.6436h-4.957v-2.918h13.3648v2.918h-4.953v13.2485h-3.4548z"/><path d="m91.161 21.5769h3.3166v-2.8513h-3.3166zm.0475 13.3349h3.2256v-11.8406h-3.2256z"/><path d="m107.812 30.6093c-.063 1.2736-.597 2.4798-1.498 3.3885-.87.8368-2.172 1.2551-3.906 1.2551-.899.0153-1.792-.1446-2.6285-.4707-.6979-.2706-1.3192-.7053-1.8104-1.2668-.4845-.5731-.8415-1.2414-1.0476-1.961-.2374-.8316-.3533-1.6928-.3438-2.5571-.0125-.8735.121-1.7428.3952-2.5728.2455-.7362.6411-1.4144 1.1621-1.9924.5191-.5578 1.1563-.9945 1.866-1.2786 1.503-.546 3.143-.5942 4.676-.1373.561.1797 1.081.4676 1.53.8472.414.3593.745.8035.968 1.3021.238.5281.394 1.0886.463 1.6629l-3.249.4315c-.048-.5234-.23-1.0258-.53-1.459-.176-.2001-.398-.3553-.647-.4522-.249-.097-.518-.1329-.784-.1048-.428-.0159-.852.0902-1.221.3059-.324.2068-.589.4915-.771.8276-.196.368-.33.7655-.396 1.1766-.0765.4602-.1148.9259-.1142 1.3923-.001.4782.0374.9557.1142 1.4277.07.4176.203.8224.396 1.2.177.3363.44.6204.763.8236.369.2168.793.3231 1.221.306.273.0174.547-.0218.804-.115.258-.0931.493-.2383.69-.4263.385-.4353.606-.9898.625-1.5688z"/><path d="m109.78 18.7256h3.159v8.4677l4.629-4.1221h3.735l-4.38 4.075 4.724 7.7459h-3.479l-3.549-5.9811-1.68 1.4944v4.4867h-3.159z"/><path d="m133.073 31.2013c-.131 1.1762-.713 2.2573-1.625 3.02-.864.6876-2.127 1.0314-3.787 1.0314-2 0-3.502-.5438-4.506-1.6315s-1.508-2.6265-1.51-4.6162c-.015-.9066.133-1.8085.439-2.6631.271-.7307.69-1.3982 1.233-1.9609.528-.5503 1.172-.9787 1.885-1.2551.782-.2859 1.61-.4268 2.443-.4157 1.845 0 3.231.5229 4.159 1.5688.929 1.0432 1.395 2.4434 1.395 4.2121v1.2669h-8.329c-.019.8017.238 1.586.728 2.2238.264.2754.588.4888.946.6244.358.1357.743.1904 1.125.1599 1.277 0 2.028-.5295 2.261-1.5687zm-2.973-3.5298c.047-.69-.17-1.3721-.609-1.9101-.251-.2433-.553-.4297-.884-.5461s-.683-.1603-1.033-.1284c-.387-.0087-.771.0608-1.13.2039-.308.1271-.587.3153-.819.553-.223.2368-.399.5137-.517.8158-.125.3223-.194.6631-.206 1.0079z"/><path d="m136.048 25.538h-1.89v-2.467h1.89v-3.1376h3.225v3.1376h2.768v2.467h-2.768v5.4594c0 .6158.131 1.0353.396 1.255.285.2285.645.3457 1.012.3295.219-.0001.438-.012.656-.0353.222-.0217.442-.0638.656-.1255l.463 2.3532c-.425.1323-.86.2268-1.301.2823-.402.0524-.808.0785-1.213.0785-1.321 0-2.297-.3098-2.937-.9255-.641-.6159-.957-1.663-.957-3.1377z"/><path d="m147.798 29.6129c.079.9963.395 1.7217.98 2.1767s1.428.6786 2.546.6786c.459.0089.917-.0479 1.36-.1687.327-.0935.632-.2479.901-.455.219-.177.389-.4065.494-.6667.101-.2684.152-.5528.15-.8393-.01-.4383-.183-.8574-.486-1.1766-.319-.3687-.91-.6301-1.775-.7844l-2.143-.3922c-.761-.1272-1.508-.3241-2.233-.5883-.594-.2139-1.144-.5329-1.624-.9413-.443-.3954-.785-.8885-1-1.4394-.244-.6357-.361-1.3124-.344-1.9923-.014-.7065.148-1.4055.47-2.0355.315-.5869.766-1.091 1.316-1.4708.613-.4152 1.296-.7181 2.016-.8942.844-.2115 1.711-.3143 2.582-.3059 1.012-.0328 2.023.0997 2.992.3922.713.2215 1.373.5874 1.937 1.0746.479.4267.854.9566 1.095 1.5492.237.5889.396 1.2059.475 1.8355l-3.25.3922c-.097-.7266-.446-1.3968-.988-1.8943-.486-.3922-1.218-.5883-2.202-.5883-.484-.0095-.967.0392-1.439.1451-.324.0781-.631.2108-.91.3922-.212.1334-.381.3256-.485.553-.091.2067-.138.4296-.138.6549-.021.2522.017.5055.107.742.09.2366.231.4505.415.6268.519.3757 1.125.617 1.762.7021l2.261.4314c1.779.3451 3.085.9073 3.917 1.6864.833.7792 1.247 1.8996 1.242 3.3611.01.6742-.124 1.3428-.395 1.9611-.272.6047-.677 1.141-1.186 1.5688-.583.4732-1.255.8264-1.977 1.0393-.911.2721-1.859.4043-2.811.3922-2.244 0-3.958-.4707-5.138-1.4119-1.181-.9413-1.823-2.365-1.925-4.2711z"/><path d="m159.647 23.071h3.131v1.5689c.415-.6107.979-1.1072 1.639-1.4432.661-.3361 1.398-.5007 2.139-.4786 1.677 0 2.929.5582 3.76 1.6747.83 1.1164 1.244 2.6486 1.241 4.5965.01.8653-.11 1.7271-.356 2.5572-.211.7209-.564 1.3938-1.035 1.9806-.447.5368-1.011.966-1.649 1.255-.688.3205-1.441.4815-2.202.4706-.61-.0021-1.214-.1096-1.786-.3177-.662-.2639-1.239-.7019-1.668-1.2667v5.6163h-3.226zm3.202 6.0007c-.017.6202.048 1.24.194 1.8434.108.423.328.81.636 1.1216.263.2502.583.4332.932.5334.313.083.635.1251.957.1255.348-.0002.692-.0695 1.013-.2039.33-.1424.62-.3649.841-.6472.261-.3405.453-.728.566-1.1413.147-.5536.217-1.1254.205-1.6982.013-.5876-.052-1.1746-.194-1.7452-.105-.4125-.289-.8013-.541-1.1453-.212-.2782-.495-.496-.818-.6314-.319-.1295-.66-.1948-1.004-.1922-.352-.0079-.703.0451-1.036.1569-.311.1177-.599.286-.854.4981-.315.2996-.549.6732-.68 1.0864-.16.5449-.233 1.1112-.217 1.6786z"/><path d="m173.657 21.5769h3.332v-2.8513h-3.317zm.043 13.3349h3.229v-11.8406h-3.229z"/><path d="m190.292 30.6092c-.058 1.2725-.587 2.4791-1.486 3.3885-.87.8368-2.173 1.2551-3.91 1.2551-.898.0153-1.79-.1447-2.625-.4706-.698-.2706-1.319-.7054-1.81-1.2668-.484-.5732-.842-1.2414-1.048-1.961-.238-.8317-.354-1.6928-.344-2.5571-.013-.8735.121-1.7428.395-2.5729.246-.7361.641-1.4143 1.163-1.9924.527-.5583 1.174-.9925 1.893-1.2707 1.494-.5425 3.124-.5934 4.648-.1451.562.1787 1.083.4667 1.53.8471.415.3593.745.8036.969 1.3021.236.5288.391 1.0891.463 1.663l-3.262.4314c-.048-.5233-.23-1.0257-.529-1.459-.177-.2001-.399-.3552-.647-.4522-.25-.0969-.519-.1329-.784-.1047-.429-.016-.852.0902-1.222.3059-.33.2042-.603.4891-.791.8276-.197.3672-.331.7651-.395 1.1765-.076.4602-.115.9259-.115 1.3923-.001.4782.038.9557.115 1.4277.067.4181.201.8231.395 1.2001.177.3363.441.6204.763.8236.368.2162.791.3225 1.218.3059.274.018.549-.0209.806-.1141.258-.0932.494-.2386.692-.4271.385-.4353.606-.9898.625-1.5688z"/><path d="m202.827 31.2015c-.134 1.1752-.715 2.2551-1.625 3.02-.868.6876-2.133 1.0315-3.79 1.0315-1.995 0-3.498-.5438-4.507-1.6316-1.009-1.0877-1.512-2.6264-1.51-4.6162-.015-.9065.134-1.8083.44-2.663.271-.7307.69-1.3982 1.233-1.961.535-.545 1.184-.9668 1.901-1.2354.782-.2853 1.61-.4262 2.443-.4158 1.845 0 3.231.523 4.158 1.5688.929 1.0433 1.396 2.4434 1.396 4.2123v1.2667h-8.344c-.019.8059.243 1.5933.738 2.2317.265.2755.59.4888.949.6245s.744.1904 1.126.1599c1.273 0 2.029-.5295 2.258-1.5688zm-2.972-3.5298c.046-.6905-.173-1.3726-.613-1.91-.249-.2419-.548-.4278-.876-.5449-.329-.117-.678-.1626-1.025-.1336-.386-.0087-.769.0608-1.127.2039-.309.1252-.587.3137-.818.553-.224.2368-.399.5138-.518.8158-.128.3217-.199.6626-.209 1.008z"/></g></svg>

<svg width="243" height="53" viewBox="0 0 243 53" fill="none" xmlns="http://www.w3.org/2000/svg">
<path fill-rule="evenodd" clip-rule="evenodd" d="M65.1198 28.656C63.1749 32.0877 60.8426 34.0174 55.7988 34.5742C50.2409 35.1939 45.6477 31.5896 43.8333 28.8991C46.1471 29.7115 48.6122 30.0114 51.0553 29.7776C55.5853 29.3658 58.1705 27.5891 60.0245 24.679C60.3051 24.2437 61.064 22.8789 59.7359 22.42C58.5184 22.0003 57.3997 21.9886 56.5301 23.2554C55.1188 25.3222 53.4665 26.1145 50.0078 26.491C45.3986 26.9812 39.8645 23.9535 39.2242 24.585C38.0778 25.7144 41.7975 38.1315 55.5063 37.9786C60.4434 37.9236 63.9102 36.2529 67.1556 32.0955C67.9461 31.0876 67.701 29.864 66.8353 28.7148C66.3017 28.0048 65.5428 27.9539 65.1356 28.6716" fill="white"/>
<path fill-rule="evenodd" clip-rule="evenodd" d="M68.7242 21.2082C70.5623 16.4547 68.7874 13.4622 68.1075 13.6034C67.5541 13.725 66.5263 16.8508 65.0637 18.6706C60.1463 16.4351 57.059 18.4667 57.1302 19.5452C57.1895 20.4434 61.2373 19.7962 65.036 23.075C69.072 26.546 69.1906 30.3071 70.3449 30.2915C71.2698 30.2915 73.2344 26.6323 68.7242 21.2082Z" fill="white"/>
<path fill-rule="evenodd" clip-rule="evenodd" d="M81.2094 21.6436H76.2524V18.7256H89.6172V21.6436H84.6642V34.8921H81.2094V21.6436Z" fill="white"/>
<path fill-rule="evenodd" clip-rule="evenodd" d="M91.161 21.5769H94.4776V18.7256H91.161V21.5769ZM91.2085 34.9118H94.4341V23.0712H91.2085V34.9118Z" fill="white"/>
<path fill-rule="evenodd" clip-rule="evenodd" d="M107.812 30.6093C107.749 31.8829 107.215 33.0891 106.314 33.9978C105.444 34.8346 104.142 35.2529 102.408 35.2529C101.509 35.2682 100.616 35.1083 99.7795 34.7822C99.0816 34.5116 98.4603 34.0769 97.9691 33.5154C97.4846 32.9423 97.1276 32.274 96.9215 31.5544C96.6841 30.7228 96.5682 29.8616 96.5777 28.9973C96.5652 28.1238 96.6987 27.2545 96.9729 26.4245C97.2184 25.6883 97.614 25.0101 98.135 24.4321C98.6541 23.8743 99.2913 23.4376 100.001 23.1535C101.504 22.6075 103.144 22.5593 104.677 23.0162C105.238 23.1959 105.758 23.4838 106.207 23.8634C106.621 24.2227 106.952 24.6669 107.175 25.1655C107.413 25.6936 107.569 26.2541 107.638 26.8284L104.389 27.2599C104.341 26.7365 104.159 26.2341 103.859 25.8009C103.683 25.6008 103.461 25.4456 103.212 25.3487C102.963 25.2517 102.694 25.2158 102.428 25.2439C102 25.228 101.576 25.3341 101.207 25.5498C100.883 25.7566 100.618 26.0413 100.436 26.3774C100.24 26.7454 100.106 27.1429 100.04 27.554C99.9635 28.0142 99.9252 28.4799 99.9258 28.9463C99.9248 29.4245 99.9632 29.902 100.04 30.374C100.11 30.7916 100.243 31.1964 100.436 31.574C100.613 31.9103 100.876 32.1944 101.199 32.3976C101.568 32.6144 101.992 32.7207 102.42 32.7036C102.693 32.721 102.967 32.6818 103.224 32.5886C103.482 32.4955 103.717 32.3503 103.914 32.1623C104.299 31.727 104.52 31.1725 104.539 30.5935L107.812 30.6093Z" fill="white"/>
<path fill-rule="evenodd" clip-rule="evenodd" d="M109.78 18.7256H112.939V27.1933L117.568 23.0712H121.303L116.923 27.1462L121.647 34.8921H118.168L114.619 28.911L112.939 30.4054V34.8921H109.78V18.7256Z" fill="white"/>
<path fill-rule="evenodd" clip-rule="evenodd" d="M133.073 31.2013C132.942 32.3775 132.36 33.4586 131.448 34.2213C130.584 34.9089 129.321 35.2527 127.661 35.2527C125.661 35.2527 124.159 34.7089 123.155 33.6212C122.151 32.5335 121.647 30.9947 121.645 29.005C121.63 28.0984 121.778 27.1965 122.084 26.3419C122.355 25.6112 122.774 24.9437 123.317 24.381C123.845 23.8307 124.489 23.4023 125.202 23.1259C125.984 22.84 126.812 22.6991 127.645 22.7102C129.49 22.7102 130.876 23.2331 131.804 24.279C132.733 25.3222 133.199 26.7224 133.199 28.4911V29.758H124.87C124.851 30.5597 125.108 31.344 125.598 31.9818C125.862 32.2572 126.186 32.4706 126.544 32.6062C126.902 32.7419 127.287 32.7966 127.669 32.7661C128.946 32.7661 129.697 32.2366 129.93 31.1974L133.073 31.2013ZM130.1 27.6715C130.147 26.9815 129.93 26.2994 129.491 25.7614C129.24 25.5181 128.938 25.3317 128.607 25.2153C128.276 25.0989 127.924 25.055 127.574 25.0869C127.187 25.0782 126.803 25.1477 126.444 25.2908C126.136 25.4179 125.857 25.6061 125.625 25.8438C125.402 26.0806 125.226 26.3575 125.108 26.6596C124.983 26.9819 124.914 27.3227 124.902 27.6675L130.1 27.6715Z" fill="white"/>
<path fill-rule="evenodd" clip-rule="evenodd" d="M136.048 25.538H134.158V23.071H136.048V19.9334H139.273V23.071H142.041V25.538H139.273V30.9974C139.273 31.6132 139.404 32.0327 139.669 32.2524C139.954 32.4809 140.314 32.5981 140.681 32.5819C140.9 32.5818 141.119 32.5699 141.337 32.5466C141.559 32.5249 141.779 32.4828 141.993 32.4211L142.456 34.7743C142.031 34.9066 141.596 35.0011 141.155 35.0566C140.753 35.109 140.347 35.1351 139.942 35.1351C138.621 35.1351 137.645 34.8253 137.005 34.2096C136.364 33.5937 136.048 32.5466 136.048 31.0719V25.538Z" fill="white"/>
<path fill-rule="evenodd" clip-rule="evenodd" d="M147.798 29.6129C147.877 30.6092 148.193 31.3346 148.778 31.7896C149.363 32.2446 150.206 32.4682 151.324 32.4682C151.783 32.4771 152.241 32.4203 152.684 32.2995C153.011 32.206 153.316 32.0516 153.585 31.8445C153.804 31.6675 153.974 31.438 154.079 31.1778C154.18 30.9094 154.231 30.625 154.229 30.3385C154.219 29.9002 154.046 29.4811 153.743 29.1619C153.424 28.7932 152.833 28.5318 151.968 28.3775L149.825 27.9853C149.064 27.8581 148.317 27.6612 147.592 27.397C146.998 27.1831 146.448 26.8641 145.968 26.4557C145.525 26.0603 145.183 25.5672 144.968 25.0163C144.724 24.3806 144.607 23.7039 144.624 23.024C144.61 22.3175 144.772 21.6185 145.094 20.9885C145.409 20.4016 145.86 19.8975 146.41 19.5177C147.023 19.1025 147.706 18.7996 148.426 18.6235C149.27 18.412 150.137 18.3092 151.008 18.3176C152.02 18.2848 153.031 18.4173 154 18.7098C154.713 18.9313 155.373 19.2972 155.937 19.7844C156.416 20.2111 156.791 20.741 157.032 21.3336C157.269 21.9225 157.428 22.5395 157.507 23.1691L154.257 23.5613C154.16 22.8347 153.811 22.1645 153.269 21.667C152.783 21.2748 152.051 21.0787 151.067 21.0787C150.583 21.0692 150.1 21.1179 149.628 21.2238C149.304 21.3019 148.997 21.4346 148.718 21.616C148.506 21.7494 148.337 21.9416 148.233 22.169C148.142 22.3757 148.095 22.5986 148.095 22.8239C148.074 23.0761 148.112 23.3294 148.202 23.5659C148.292 23.8025 148.433 24.0164 148.617 24.1927C149.136 24.5684 149.742 24.8097 150.379 24.8948L152.64 25.3262C154.419 25.6713 155.725 26.2335 156.557 27.0126C157.39 27.7918 157.804 28.9122 157.799 30.3737C157.809 31.0479 157.675 31.7165 157.404 32.3348C157.132 32.9395 156.727 33.4758 156.218 33.9036C155.635 34.3768 154.963 34.73 154.241 34.9429C153.33 35.215 152.382 35.3472 151.43 35.3351C149.186 35.3351 147.472 34.8644 146.292 33.9232C145.111 32.9819 144.469 31.5582 144.367 29.6521L147.798 29.6129Z" fill="white"/>
<path fill-rule="evenodd" clip-rule="evenodd" d="M159.647 23.071H162.778V24.6399C163.193 24.0292 163.757 23.5327 164.417 23.1967C165.078 22.8606 165.815 22.696 166.556 22.7181C168.233 22.7181 169.485 23.2763 170.316 24.3928C171.146 25.5092 171.56 27.0414 171.557 28.9893C171.567 29.8546 171.447 30.7164 171.201 31.5465C170.99 32.2674 170.637 32.9403 170.166 33.5271C169.719 34.0639 169.155 34.4931 168.517 34.7821C167.829 35.1026 167.076 35.2636 166.315 35.2527C165.705 35.2506 165.101 35.1431 164.529 34.935C163.867 34.6711 163.29 34.2331 162.861 33.6683V39.2846H159.635L159.647 23.071ZM162.849 29.0717C162.832 29.6919 162.897 30.3117 163.043 30.9151C163.151 31.3381 163.371 31.7251 163.679 32.0367C163.942 32.2869 164.262 32.4699 164.611 32.5701C164.924 32.6531 165.246 32.6952 165.568 32.6956C165.916 32.6954 166.26 32.6261 166.581 32.4917C166.911 32.3493 167.201 32.1268 167.422 31.8445C167.683 31.504 167.875 31.1165 167.988 30.7032C168.135 30.1496 168.205 29.5778 168.193 29.005C168.206 28.4174 168.141 27.8304 167.999 27.2598C167.894 26.8473 167.71 26.4585 167.458 26.1145C167.246 25.8363 166.963 25.6185 166.64 25.4831C166.321 25.3536 165.98 25.2883 165.636 25.2909C165.284 25.283 164.933 25.336 164.6 25.4478C164.289 25.5655 164.001 25.7338 163.746 25.9459C163.431 26.2455 163.197 26.6191 163.066 27.0323C162.906 27.5772 162.833 28.1435 162.849 28.7109V29.0717Z" fill="white"/>
<path fill-rule="evenodd" clip-rule="evenodd" d="M173.657 21.5769H176.989V18.7256H173.672L173.657 21.5769ZM173.7 34.9118H176.929V23.0712H173.7V34.9118Z" fill="white"/>
<path fill-rule="evenodd" clip-rule="evenodd" d="M190.292 30.6092C190.234 31.8817 189.705 33.0883 188.806 33.9977C187.936 34.8345 186.633 35.2528 184.896 35.2528C183.998 35.2681 183.106 35.1081 182.271 34.7822C181.573 34.5116 180.952 34.0768 180.461 33.5154C179.977 32.9422 179.619 32.274 179.413 31.5544C179.175 30.7227 179.059 29.8616 179.069 28.9973C179.056 28.1238 179.19 27.2545 179.464 26.4244C179.71 25.6883 180.105 25.0101 180.627 24.432C181.154 23.8737 181.801 23.4395 182.52 23.1613C184.014 22.6188 185.644 22.5679 187.168 23.0162C187.73 23.1949 188.251 23.4829 188.698 23.8633C189.113 24.2226 189.443 24.6669 189.667 25.1654C189.903 25.6942 190.058 26.2545 190.13 26.8284L186.868 27.2598C186.82 26.7365 186.638 26.2341 186.339 25.8008C186.162 25.6007 185.94 25.4456 185.692 25.3486C185.442 25.2517 185.173 25.2157 184.908 25.2439C184.479 25.2279 184.056 25.3341 183.686 25.5498C183.356 25.754 183.083 26.0389 182.895 26.3774C182.698 26.7446 182.564 27.1425 182.5 27.5539C182.424 28.0141 182.385 28.4798 182.385 28.9462C182.384 29.4244 182.423 29.9019 182.5 30.3739C182.567 30.792 182.701 31.197 182.895 31.574C183.072 31.9103 183.336 32.1944 183.658 32.3976C184.026 32.6138 184.449 32.7201 184.876 32.7035C185.15 32.7215 185.425 32.6826 185.682 32.5894C185.94 32.4962 186.176 32.3508 186.374 32.1623C186.759 31.727 186.98 31.1725 186.999 30.5935L190.292 30.6092Z" fill="white"/>
<path fill-rule="evenodd" clip-rule="evenodd" d="M202.827 31.2015C202.693 32.3767 202.112 33.4566 201.202 34.2215C200.334 34.9091 199.069 35.253 197.412 35.253C195.417 35.253 193.914 34.7092 192.905 33.6214C191.896 32.5337 191.393 30.995 191.395 29.0052C191.38 28.0987 191.529 27.1969 191.835 26.3422C192.106 25.6115 192.525 24.944 193.068 24.3812C193.603 23.8362 194.252 23.4144 194.969 23.1458C195.751 22.8605 196.579 22.7196 197.412 22.73C199.257 22.73 200.643 23.253 201.57 24.2988C202.499 25.3421 202.966 26.7422 202.966 28.5111V29.7778H194.622C194.603 30.5837 194.865 31.3711 195.36 32.0095C195.625 32.285 195.95 32.4983 196.309 32.634C196.668 32.7697 197.053 32.8244 197.435 32.7939C198.708 32.7939 199.464 32.2644 199.693 31.2251L202.827 31.2015ZM199.855 27.6717C199.901 26.9812 199.682 26.2991 199.242 25.7617C198.993 25.5198 198.694 25.3339 198.366 25.2168C198.037 25.0998 197.688 25.0542 197.341 25.0832C196.955 25.0745 196.572 25.144 196.214 25.2871C195.905 25.4123 195.627 25.6008 195.396 25.8401C195.172 26.0769 194.997 26.3539 194.878 26.6559C194.75 26.9776 194.679 27.3185 194.669 27.6639L199.855 27.6717Z" fill="white"/>
</svg>
